flaticon/transportation/bus-4.svg

<svg xmlns="http://www.w3.org/2000/svg" width="32" height="32" viewBox="0 0 24 24">
    <path d="M17.074219 15.25C16.015625 15.25 15.152344 16.136719 15.152344 17.226562 15.152344 18.316406 16.015625 19.203125 17.074219 19.203125 18.136719 19.203125 18.996094 18.316406 18.996094 17.226562 18.996094 16.136719 18.136719 15.25 17.074219 15.25zM17.074219 18.179688C16.578125 18.179688 16.171875 17.75 16.171875 17.226562 16.171875 16.699219 16.578125 16.269531 17.074219 16.269531 17.570312 16.269531 17.976562 16.699219 17.976562 17.226562 17.976562 17.75 17.570312 18.179688 17.074219 18.179688zM6.925781 15.25C5.863281 15.25 5 16.136719 5 17.226562 5 18.316406 5.863281 19.203125 6.925781 19.203125 7.984375 19.203125 8.847656 18.316406 8.847656 17.226562 8.847656 16.136719 7.984375 15.25 6.925781 15.25zM6.925781 18.179688C6.429688 18.179688 6.023438 17.75 6.023438 17.226562 6.023438 16.699219 6.429688 16.269531 6.925781 16.269531 7.421875 16.269531 7.828125 16.699219 7.828125 17.226562 7.828125 17.75 7.421875 18.179688 6.925781 18.179688zM10.402344 16.714844L13.597656 16.714844 13.597656 17.734375 10.402344 17.734375zM10.402344 16.714844"/>
    <path d="M 22.59375 2.867188 L 21.710938 2.867188 C 21.488281 1.25 20.09375 0 18.414062 0 L 5.585938 0 C 3.90625 0 2.511719 1.25 2.289062 2.867188 L 1.40625 2.867188 C 0.628906 2.867188 0 3.511719 0 4.304688 L 0 8.859375 C 0 9.652344 0.628906 10.296875 1.40625 10.296875 L 2.257812 10.296875 L 2.257812 17.84375 C 2.257812 19.445312 3.394531 20.789062 4.90625 21.101562 L 4.90625 22 C 4.90625 23.101562 5.757812 24 6.800781 24 L 7.097656 24 C 8.144531 24 8.992188 23.101562 8.992188 22 L 8.992188 21.171875 L 15.007812 21.171875 L 15.007812 22 C 15.007812 23.101562 15.855469 24 16.902344 24 L 17.199219 24 C 18.242188 24 19.09375 23.101562 19.09375 22 L 19.09375 21.101562 C 20.605469 20.789062 21.742188 19.445312 21.742188 17.84375 L 21.742188 10.296875 L 22.59375 10.296875 C 23.371094 10.296875 24 9.652344 24 8.859375 L 24 4.304688 C 24 3.511719 23.371094 2.867188 22.59375 2.867188 Z M 5.585938 1.019531 L 18.414062 1.019531 C 19.6875 1.019531 20.722656 2.054688 20.722656 3.328125 L 20.722656 4.363281 L 3.277344 4.363281 L 3.277344 3.328125 C 3.277344 2.054688 4.3125 1.019531 5.585938 1.019531 Z M 3.277344 5.382812 L 11.429688 5.382812 L 11.429688 13.082031 L 3.277344 13.082031 Z M 12.453125 5.382812 L 20.722656 5.382812 L 20.722656 13.082031 L 12.453125 13.082031 Z M 1.40625 9.273438 C 1.191406 9.273438 1.019531 9.085938 1.019531 8.859375 L 1.019531 4.304688 C 1.019531 4.078125 1.191406 3.890625 1.40625 3.890625 L 2.257812 3.890625 L 2.257812 9.273438 Z M 7.972656 22 C 7.972656 22.539062 7.582031 22.980469 7.097656 22.980469 L 6.800781 22.980469 C 6.320312 22.980469 5.929688 22.539062 5.929688 22 L 5.929688 21.171875 L 7.972656 21.171875 Z M 17.199219 22.980469 L 16.902344 22.980469 C 16.421875 22.980469 16.027344 22.539062 16.027344 22 L 16.027344 21.171875 L 18.070312 21.171875 L 18.070312 22 C 18.070312 22.539062 17.679688 22.980469 17.199219 22.980469 Z M 18.414062 20.148438 L 5.585938 20.148438 C 4.3125 20.148438 3.277344 19.113281 3.277344 17.84375 L 3.277344 14.101562 L 20.722656 14.101562 L 20.722656 17.84375 C 20.722656 19.113281 19.6875 20.148438 18.414062 20.148438 Z M 22.980469 8.859375 C 22.980469 9.085938 22.808594 9.273438 22.59375 9.273438 L 21.742188 9.273438 L 21.742188 3.890625 L 22.59375 3.890625 C 22.808594 3.890625 22.980469 4.078125 22.980469 4.304688 Z M 22.980469 8.859375"/>
</svg>

<svg xmlns="http://www.w3.org/2000/svg" width="32" height="32" viewBox="0 0 24 24">
    <path d="M17.074 15.25c-1.058 0-1.922.887-1.922 1.977s.864 1.976 1.922 1.976c1.063 0 1.922-.887 1.922-1.976 0-1.09-.86-1.977-1.922-1.977zm0 2.93c-.496 0-.902-.43-.902-.953 0-.528.406-.957.902-.957s.903.43.903.957c0 .523-.407.953-.903.953zm0 0M6.926 15.25C5.863 15.25 5 16.137 5 17.227s.863 1.976 1.926 1.976c1.058 0 1.922-.887 1.922-1.976 0-1.09-.864-1.977-1.922-1.977zm0 2.93c-.496 0-.903-.43-.903-.953 0-.528.407-.957.903-.957.496 0 .902.43.902.957 0 .523-.406.953-.902.953zm0 0M10.402 16.715h3.196v1.02h-3.196zm0 0"/>
    <path d="M22.594 2.867h-.883A3.332 3.332 0 0 0 18.414 0H5.586a3.332 3.332 0 0 0-3.297 2.867h-.883C.63 2.867 0 3.512 0 4.305v4.554c0 .793.629 1.438 1.406 1.438h.852v7.547a3.33 3.33 0 0 0 2.648 3.258V22c0 1.102.852 2 1.895 2h.297c1.047 0 1.894-.898 1.894-2v-.828h6.016V22c0 1.102.847 2 1.894 2h.297c1.043 0 1.895-.898 1.895-2v-.898a3.33 3.33 0 0 0 2.648-3.258v-7.547h.852c.777 0 1.406-.645 1.406-1.438V4.305c0-.793-.629-1.438-1.406-1.438zM5.586 1.02h12.828a2.31 2.31 0 0 1 2.309 2.308v1.035H3.277V3.328A2.31 2.31 0 0 1 5.586 1.02zM3.277 5.383h8.153v7.699H3.277zm9.176 0h8.27v7.699h-8.27zM1.406 9.273c-.215 0-.386-.187-.386-.414V4.305c0-.227.171-.414.386-.414h.852v5.382zM7.973 22c0 .54-.391.98-.875.98H6.8c-.48 0-.871-.44-.871-.98v-.828h2.043zm9.226.98h-.297c-.48 0-.875-.44-.875-.98v-.828h2.043V22c0 .54-.39.98-.87.98zm1.215-2.832H5.586a2.31 2.31 0 0 1-2.309-2.304v-3.742h17.446v3.742a2.31 2.31 0 0 1-2.309 2.304zM22.98 8.86c0 .227-.171.414-.386.414h-.852V3.891h.852c.215 0 .386.187.386.414zm0 0"/>
</svg>
